X: 34890
T: Robin's Return
R: jig
M: 6/8
K: Dmajor
|:d|DFA dAF|GFE FDD|DFA dAF|EFG ABA|
DFA dAF|~G2E FED|EFG ABA|ABc d2:|
|:d|cBA cBA|dAF dAF|EFG ~A3|DFA dcd|
cBA cBA|dAF dAF|EFG ABA|ABc d2:|
|:d|fed edc|dcB AGF|GFE FED|~E3 E2d|
fed edc|dcB AGF|EFG ~A3|ABc d2:|

